X: 1846
T: Sûzinâk Seyir
C: Erol Bingöl
O: Turkey
F: http://compmusic.upf.edu/node/140
N: suzinak--seyir--sofyan--1--erol_bingol
N: makam= suzinak
N: form= seyir
N: usul= sofyan = 4/4
M: 4/4
L: 1/16
K: C _1/4B _7/8e ^f 
Q: 1/4=60
%%MIDI tuningsystem comma53
c4 d4 d2ef e2d2  | d3c B2c2 d8  | d2e2 f2g2 a4 g2f2  | \
w:   |   |   | 
f3e feed d8  | 
w:   | 
c2d2 e2f2 g4 f2e2  | d3c edcB c8  | B2c2 d2=e2 d4 c2B2  | 
w:   |   |   | 
B3A ABAG G8  | |


